src/svg/calendar-times.svg

<svg height="1000" width="875.0" xmlns="http://www.w3.org/2000/svg">
    <path d="m851.6 312.5h-828.2c-12.9 0-23.4-10.5-23.4-23.4v-70.3c0-51.8 42-93.8 93.8-93.8h93.7v-101.6c0-12.9 10.5-23.4 23.4-23.4h78.2c12.9 0 23.4 10.5 23.4 23.4v101.6h250v-101.6c0-12.9 10.5-23.4 23.4-23.4h78.2c12.9 0 23.4 10.5 23.4 23.4v101.6h93.8c51.7 0 93.7 42 93.7 93.8v70.3c0 12.9-10.5 23.4-23.4 23.4z m-828.2 62.5h828.2c12.9 0 23.4 10.5 23.4 23.4v507.9c0 51.7-42 93.7-93.7 93.7h-687.5c-51.8 0-93.8-42-93.8-93.7v-507.9c0-12.9 10.5-23.4 23.4-23.4z m502.6 312.5l93.9-93.9c9.2-9.2 9.2-24.1 0-33.2l-55.3-55.3c-9.1-9.2-24-9.2-33.2 0l-93.9 93.9-93.9-93.9c-9.2-9.2-24.1-9.2-33.2 0l-55.3 55.3c-9.2 9.1-9.2 24 0 33.2l93.9 93.9-93.9 93.9c-9.2 9.2-9.2 24.1 0 33.2l55.3 55.3c9.1 9.2 24 9.2 33.2 0l93.9-93.9 93.9 93.9c9.2 9.2 24.1 9.2 33.2 0l55.3-55.3c9.2-9.1 9.2-24 0-33.2z" />
  </svg>

<svg height="1000" width="875" xmlns="http://www.w3.org/2000/svg"><path d="M851.6 312.5H23.4C10.5 312.5 0 302 0 289.1v-70.3C0 167 42 125 93.8 125h93.7V23.4C187.5 10.5 198 0 210.9 0h78.2c12.9 0 23.4 10.5 23.4 23.4V125h250V23.4C562.5 10.5 573 0 585.9 0h78.2c12.9 0 23.4 10.5 23.4 23.4V125h93.8c51.7 0 93.7 42 93.7 93.8v70.3c0 12.9 -10.5 23.4 -23.4 23.4zM23.4 375h828.2c12.9 0 23.4 10.5 23.4 23.4v507.9c0 51.7 -42 93.7 -93.7 93.7H93.8C42 1000 0 958 0 906.3V398.4C0 385.5 10.5 375 23.4 375zM526 687.5l93.9 -93.9c9.2 -9.2 9.2 -24.1 0 -33.2l-55.3 -55.3c-9.1 -9.2 -24 -9.2 -33.2 0L437.5 599l-93.9 -93.9c-9.2 -9.2 -24.1 -9.2 -33.2 0l-55.3 55.3c-9.2 9.1 -9.2 24 0 33.2l93.9 93.9 -93.9 93.9c-9.2 9.2 -9.2 24.1 0 33.2l55.3 55.3c9.1 9.2 24 9.2 33.2 0L437.5 776l93.9 93.9c9.2 9.2 24.1 9.2 33.2 0l55.3 -55.3c9.2 -9.1 9.2 -24 0 -33.2L526 687.5z"/></svg>
